icons/svg/deskphone.svg

﻿<?xml version="1.0" encoding="utf-8"?>
<!DOCTYPE svg PUBLIC "-//W3C//DTD SVG 1.1//EN" "http://www.w3.org/Graphics/SVG/1.1/DTD/svg11.dtd">
<svg xmlns="http://www.w3.org/2000/svg" xmlns:xlink="http://www.w3.org/1999/xlink" version="1.1" baseProfile="full" width="24" height="24" viewBox="0 0 24.00 24.00" enable-background="new 0 0 24.00 24.00" xml:space="preserve">
	<path fill="#000000" fill-opacity="1" stroke-width="0.2" stroke-linejoin="round" d="M 5,3L 19,3C 20.1046,3 21,3.89543 21,5L 21,19C 21,20.1046 20.1046,21 19,21L 5,21C 3.89543,21 3,20.1046 3,19L 3,5C 3,3.89543 3.89543,3 5,3 Z M 15,5.00001L 15,19L 19,19L 19,5.00001L 15,5.00001 Z M 5,5.00001L 5,9.00001L 13,9.00001L 13,5.00001L 5,5.00001 Z M 5,11L 5,13L 6.99999,13L 6.99999,11L 5,11 Z M 7.99999,11L 7.99999,13L 10,13L 10,11L 7.99999,11 Z M 11,11L 11,13L 13,13L 13,11L 11,11 Z M 5,14L 5,16L 7,16L 7,14L 5,14 Z M 8,14L 8,16L 10,16L 10,14L 8,14 Z M 11,14L 11,16L 13,16L 13,14L 11,14 Z M 11,17L 11,19L 13,19L 13,17L 11,17 Z M 8,17L 8,19L 10,19L 10,17L 8,17 Z M 5,17L 5,19L 7,19L 7,17L 5,17 Z "/>
</svg>

<svg xmlns="http://www.w3.org/2000/svg" version="1.1" baseProfile="full" width="24" height="24" viewBox="0 0 24.00 24.00" xml:space="preserve"><path fill="#000" fill-opacity="1" stroke-width=".2" stroke-linejoin="round" d="M5 3h14c1.105 0 2 .895 2 2v14c0 1.105-.895 2-2 2H5c-1.105 0-2-.895-2-2V5c0-1.105.895-2 2-2zm10 2v14h4V5h-4zM5 5v4h8V5H5zm0 6v2h2v-2H5zm3 0v2h2v-2H8zm3 0v2h2v-2h-2zm-6 3v2h2v-2H5zm3 0v2h2v-2H8zm3 0v2h2v-2h-2zm0 3v2h2v-2h-2zm-3 0v2h2v-2H8zm-3 0v2h2v-2H5z"/></svg>
